static/img/kroki/0499b4466306dcccf034dc5b425a6614.svg

<?xml version="1.0" encoding="us-ascii" standalone="no"?><svg xmlns="http://www.w3.org/2000/svg" xmlns:xlink="http://www.w3.org/1999/xlink" contentStyleType="text/css" height="872px" preserveAspectRatio="none" style="width:501px;height:872px;" version="1.1" viewBox="0 0 501 872" width="501px" zoomAndPan="magnify"><defs/><g><!--class azure_cosmos_db_location--><g id="elem_azure_cosmos_db_location"><rect codeLine="23" fill="#3D176E" height="205.5703" id="azure_cosmos_db_location" rx="2.5" ry="2.5" style="stroke:#000D19;stroke-width:0.5;" width="487" x="7" y="660.14"/><ellipse cx="131.25" cy="680.0345" fill="#ADD1B2" rx="11" ry="11" style="stroke:#181818;stroke-width:1.0;"/><path d="M134.2188,685.6752 Q133.6406,685.972 133,686.1127 Q132.3594,686.2689 131.6563,686.2689 Q129.1563,686.2689 127.8281,684.6283 Q126.5156,682.972 126.5156,679.847 Q126.5156,676.722 127.8281,675.0658 Q129.1563,673.4095 131.6563,673.4095 Q132.3594,673.4095 133,673.5658 Q133.6563,673.722 134.2188,674.0189 L134.2188,676.7377 Q133.5938,676.1595 133,675.8939 Q132.4063,675.6127 131.7813,675.6127 Q130.4375,675.6127 129.75,676.6908 Q129.0625,677.7533 129.0625,679.847 Q129.0625,681.9408 129.75,683.0189 Q130.4375,684.0814 131.7813,684.0814 Q132.4063,684.0814 133,683.8158 Q133.5938,683.5345 134.2188,682.9564 L134.2188,685.6752 Z " fill="#000000"/><text fill="#D9B8FF" font-family="Helvetica" font-size="17" lengthAdjust="spacing" textLength="220" x="156.75" y="685.9198">azure_cosmos_db_location</text><line style="stroke:#000D19;stroke-width:0.5;" x1="8" x2="493" y1="699.9291" y2="699.9291"/><text fill="#D9B8FF" font-family="sans-serif" font-size="14" font-weight="bold" lengthAdjust="spacing" textLength="240" x="18" y="721.9242">backup_storage_redundancies</text><text fill="#D9B8FF" font-family="sans-serif" font-size="14" lengthAdjust="spacing" textLength="58" x="258" y="721.9242">: string[]</text><text fill="#D9B8FF" font-family="sans-serif" font-size="14" font-weight="bold" lengthAdjust="spacing" textLength="183" x="18" y="748.2211">is_residency_restricted</text><text fill="#D9B8FF" font-family="sans-serif" font-size="14" lengthAdjust="spacing" textLength="65" x="201" y="748.2211">: boolean</text><text fill="#D9B8FF" font-family="sans-serif" font-size="14" font-weight="bold" lengthAdjust="spacing" textLength="361" x="18" y="774.5179">is_subscription_region_access_allowed_for_az</text><text fill="#D9B8FF" font-family="sans-serif" font-size="14" lengthAdjust="spacing" textLength="65" x="379" y="774.5179">: boolean</text><text fill="#D9B8FF" font-family="sans-serif" font-size="14" font-weight="bold" lengthAdjust="spacing" textLength="400" x="18" y="800.8148">is_subscription_region_access_allowed_for_regular</text><text fill="#D9B8FF" font-family="sans-serif" font-size="14" lengthAdjust="spacing" textLength="65" x="418" y="800.8148">: boolean</text><text fill="#D9B8FF" font-family="sans-serif" font-size="14" font-weight="bold" lengthAdjust="spacing" textLength="49" x="18" y="827.1117">status</text><text fill="#D9B8FF" font-family="sans-serif" font-size="14" lengthAdjust="spacing" textLength="48" x="67" y="827.1117">: string</text><text fill="#D9B8FF" font-family="sans-serif" font-size="14" font-weight="bold" lengthAdjust="spacing" textLength="205" x="18" y="853.4086">supports_availability_zone</text><text fill="#D9B8FF" font-family="sans-serif" font-size="14" lengthAdjust="spacing" textLength="65" x="223" y="853.4086">: boolean</text></g><!--class microsoft_resource--><g id="elem_microsoft_resource"><rect codeLine="31" fill="#3D176E" height="100.3828" id="microsoft_resource" rx="2.5" ry="2.5" style="stroke:#000D19;stroke-width:0.5;" width="214" x="23.5" y="438.76"/><ellipse cx="44.8" cy="458.6545" fill="#ADD1B2" rx="11" ry="11" style="stroke:#181818;stroke-width:1.0;"/><path d="M47.7688,464.2952 Q47.1906,464.592 46.55,464.7327 Q45.9094,464.8889 45.2063,464.8889 Q42.7063,464.8889 41.3781,463.2483 Q40.0656,461.592 40.0656,458.467 Q40.0656,455.342 41.3781,453.6858 Q42.7063,452.0295 45.2063,452.0295 Q45.9094,452.0295 46.55,452.1858 Q47.2063,452.342 47.7688,452.6389 L47.7688,455.3577 Q47.1438,454.7795 46.55,454.5139 Q45.9563,454.2327 45.3313,454.2327 Q43.9875,454.2327 43.3,455.3108 Q42.6125,456.3733 42.6125,458.467 Q42.6125,460.5608 43.3,461.6389 Q43.9875,462.7014 45.3313,462.7014 Q45.9563,462.7014 46.55,462.4358 Q47.1438,462.1545 47.7688,461.5764 L47.7688,464.2952 Z " fill="#000000"/><text fill="#D9B8FF" font-family="Helvetica" font-size="17" lengthAdjust="spacing" textLength="158" x="65.2" y="464.5398">microsoft_resource</text><line style="stroke:#000D19;stroke-width:0.5;" x1="24.5" x2="236.5" y1="478.5491" y2="478.5491"/><text fill="#D9B8FF" font-family="sans-serif" font-size="14" font-weight="bold" lengthAdjust="spacing" textLength="35" x="34.5" y="500.5442">etag</text><text fill="#D9B8FF" font-family="sans-serif" font-size="14" lengthAdjust="spacing" textLength="48" x="69.5" y="500.5442">: string</text><text fill="#D9B8FF" font-family="sans-serif" font-size="14" font-weight="bold" lengthAdjust="spacing" textLength="144" x="34.5" y="526.8411">provisioning_state</text><text fill="#D9B8FF" font-family="sans-serif" font-size="14" lengthAdjust="spacing" textLength="48" x="178.5" y="526.8411">: string</text></g><!--class phantom_resource--><g id="elem_phantom_resource"><rect codeLine="35" fill="#3D176E" height="39.7891" id="phantom_resource" rx="2.5" ry="2.5" style="stroke:#000D19;stroke-width:0.5;" width="198" x="272.5" y="469.05"/><ellipse cx="287.5" cy="488.9445" fill="#ADD1B2" rx="11" ry="11" style="stroke:#181818;stroke-width:1.0;"/><path d="M290.4688,494.5852 Q289.8906,494.882 289.25,495.0227 Q288.6094,495.1789 287.9063,495.1789 Q285.4063,495.1789 284.0781,493.5383 Q282.7656,491.882 282.7656,488.757 Q282.7656,485.632 284.0781,483.9758 Q285.4063,482.3195 287.9063,482.3195 Q288.6094,482.3195 289.25,482.4758 Q289.9063,482.632 290.4688,482.9289 L290.4688,485.6477 Q289.8438,485.0695 289.25,484.8039 Q288.6563,484.5227 288.0313,484.5227 Q286.6875,484.5227 286,485.6008 Q285.3125,486.6633 285.3125,488.757 Q285.3125,490.8508 286,491.9289 Q286.6875,492.9914 288.0313,492.9914 Q288.6563,492.9914 289.25,492.7258 Q289.8438,492.4445 290.4688,491.8664 L290.4688,494.5852 Z " fill="#000000"/><text fill="#D9B8FF" font-family="Helvetica" font-size="17" lengthAdjust="spacing" textLength="156" x="306.5" y="494.8298">phantom_resource</text></g><!--class resource--><g id="elem_resource"><rect codeLine="38" fill="#3D176E" height="310.7578" id="resource" rx="2.5" ry="2.5" style="stroke:#000D19;stroke-width:0.5;" width="227" x="137" y="7"/><ellipse cx="205.75" cy="26.8945" fill="#ADD1B2" rx="11" ry="11" style="stroke:#181818;stroke-width:1.0;"/><path d="M208.7188,32.5352 Q208.1406,32.832 207.5,32.9727 Q206.8594,33.1289 206.1563,33.1289 Q203.6563,33.1289 202.3281,31.4883 Q201.0156,29.832 201.0156,26.707 Q201.0156,23.582 202.3281,21.9258 Q203.6563,20.2695 206.1563,20.2695 Q206.8594,20.2695 207.5,20.4258 Q208.1563,20.582 208.7188,20.8789 L208.7188,23.5977 Q208.0938,23.0195 207.5,22.7539 Q206.9063,22.4727 206.2813,22.4727 Q204.9375,22.4727 204.25,23.5508 Q203.5625,24.6133 203.5625,26.707 Q203.5625,28.8008 204.25,29.8789 Q204.9375,30.9414 206.2813,30.9414 Q206.9063,30.9414 207.5,30.6758 Q208.0938,30.3945 208.7188,29.8164 L208.7188,32.5352 Z " fill="#000000"/><text fill="#D9B8FF" font-family="Helvetica" font-size="17" lengthAdjust="spacing" textLength="71" x="231.25" y="32.7798">resource</text><line style="stroke:#000D19;stroke-width:0.5;" x1="138" x2="363" y1="46.7891" y2="46.7891"/><text fill="#D9B8FF" font-family="sans-serif" font-size="14" font-weight="bold" lengthAdjust="spacing" textLength="29" x="148" y="68.7842">age</text><text fill="#D9B8FF" font-family="sans-serif" font-size="14" lengthAdjust="spacing" textLength="66" x="177" y="68.7842">: duration</text><text fill="#D9B8FF" font-family="sans-serif" font-size="14" font-weight="bold" lengthAdjust="spacing" textLength="43" x="148" y="95.0811">atime</text><text fill="#D9B8FF" font-family="sans-serif" font-size="14" lengthAdjust="spacing" textLength="70" x="191" y="95.0811">: datetime</text><text fill="#D9B8FF" font-family="sans-serif" font-size="14" font-weight="bold" lengthAdjust="spacing" textLength="43" x="148" y="121.3779">ctime</text><text fill="#D9B8FF" font-family="sans-serif" font-size="14" lengthAdjust="spacing" textLength="70" x="191" y="121.3779">: datetime</text><text fill="#D9B8FF" font-family="sans-serif" font-size="14" font-weight="bold" lengthAdjust="spacing" textLength="14" x="148" y="147.6748">id</text><text fill="#D9B8FF" font-family="sans-serif" font-size="14" lengthAdjust="spacing" textLength="48" x="162" y="147.6748">: string</text><text fill="#D9B8FF" font-family="sans-serif" font-size="14" font-weight="bold" lengthAdjust="spacing" textLength="33" x="148" y="173.9717">kind</text><text fill="#D9B8FF" font-family="sans-serif" font-size="14" lengthAdjust="spacing" textLength="48" x="181" y="173.9717">: string</text><text fill="#D9B8FF" font-family="sans-serif" font-size="14" font-weight="bold" lengthAdjust="spacing" textLength="90" x="148" y="200.2686">last_access</text><text fill="#D9B8FF" font-family="sans-serif" font-size="14" lengthAdjust="spacing" textLength="66" x="238" y="200.2686">: duration</text><text fill="#D9B8FF" font-family="sans-serif" font-size="14" font-weight="bold" lengthAdjust="spacing" textLength="90" x="148" y="226.5654">last_update</text><text fill="#D9B8FF" font-family="sans-serif" font-size="14" lengthAdjust="spacing" textLength="66" x="238" y="226.5654">: duration</text><text fill="#D9B8FF" font-family="sans-serif" font-size="14" font-weight="bold" lengthAdjust="spacing" textLength="48" x="148" y="252.8623">mtime</text><text fill="#D9B8FF" font-family="sans-serif" font-size="14" lengthAdjust="spacing" textLength="70" x="196" y="252.8623">: datetime</text><text fill="#D9B8FF" font-family="sans-serif" font-size="14" font-weight="bold" lengthAdjust="spacing" textLength="43" x="148" y="279.1592">name</text><text fill="#D9B8FF" font-family="sans-serif" font-size="14" lengthAdjust="spacing" textLength="48" x="191" y="279.1592">: string</text><text fill="#D9B8FF" font-family="sans-serif" font-size="14" font-weight="bold" lengthAdjust="spacing" textLength="34" x="148" y="305.4561">tags</text><text fill="#D9B8FF" font-family="sans-serif" font-size="14" lengthAdjust="spacing" textLength="171" x="182" y="305.4561">: dictionary[string, string]</text></g><!--reverse link microsoft_resource to azure_cosmos_db_location--><g id="link_microsoft_resource_azure_cosmos_db_location"><path codeLine="50" d="M159.639,555.987 C174.449,589.537 187.27,618.61 205.42,659.75 " fill="none" id="microsoft_resource-backto-azure_cosmos_db_location" style="stroke:#FFAF37;stroke-width:2.0;"/><polygon fill="none" points="152.37,539.52,154.15,558.41,165.128,553.564,152.37,539.52" style="stroke:#FFAF37;stroke-width:2.0;"/></g><!--reverse link phantom_resource to azure_cosmos_db_location--><g id="link_phantom_resource_azure_cosmos_db_location"><path codeLine="51" d="M355.6751,525.5166 C341.8251,556.6566 320.77,603.98 295.98,659.69 " fill="none" id="phantom_resource-backto-azure_cosmos_db_location" style="stroke:#FFAF37;stroke-width:2.0;"/><polygon fill="none" points="362.99,509.07,350.1929,523.0783,361.1573,527.9549,362.99,509.07" style="stroke:#FFAF37;stroke-width:2.0;"/></g><!--reverse link resource to microsoft_resource--><g id="link_resource_microsoft_resource"><path codeLine="52" d="M187.0667,334.9426 C170.9467,378.5326 160.81,405.98 148.81,438.42 " fill="none" id="resource-backto-microsoft_resource" style="stroke:#FFAF37;stroke-width:2.0;"/><polygon fill="none" points="193.31,318.06,181.4391,332.8614,192.6942,337.0237,193.31,318.06" style="stroke:#FFAF37;stroke-width:2.0;"/></g><!--reverse link resource to phantom_resource--><g id="link_resource_phantom_resource"><path codeLine="53" d="M314.448,334.926 C336.728,394.686 353.23,438.95 364.42,468.96 " fill="none" id="resource-backto-phantom_resource" style="stroke:#FFAF37;stroke-width:2.0;"/><polygon fill="none" points="308.16,318.06,308.8261,337.022,320.07,332.8299,308.16,318.06" style="stroke:#FFAF37;stroke-width:2.0;"/></g><!--SRC=[dPD1Rzf048Nl_0fBkQ4YGQEMKFMI8bNj9QgQtgB86k-EOOLtnvfTWw3jV-yi9j7QXY3rX9dtpRotu_NQQCpGrc6VMRG5iX_vZN4rCDZidfbsIwg8ivkoXF9stXU_aWjNWGUmc7t3Qel1AEWJlzP6RHnwdxrFf2-WDYkcnkbsV61mNYHq8Q6M5NX_7mAReWcOXD6Bugui-sH_wCsjdiq_uW0ZriWdP3gTwjcYZrorUlFShyIZEM0sIvVsG047CGSMH-hDb958GWuE-g9VpFW3j3PkbNr8QZ_RJEoGE_N7DMZQHRg4ogSsFY0ZXNsDoy6fS76do_bP-FibUAJYwZ8uD8ov8c_9vxh8Ar8G3BdizsWyBgItgNCVY665EQEMCU2KGJyUVn8NbgHFpq8QBwgNBy2fVNmIHGNKaIg8AWJNGhufl69JHmlXLl47b98xcqDLqGvrNXBdSFZVJb6Q2hZRxWE49eaSIqrT4mTfteAfe32L2VlyG0xJrh-dBLcZc3oL8PwD6bPut0y6M7McranRuoMQ_CsZAoRoox1w3IwGJKUzQftnilFOhXi-lf9O2SQsDHaTdwMcpjICxiIIUz4jY5SuRQ_dS5IQMf-Y9uezu-F0OcUmBAITAAzVse3tJwtsxiGyor7FRFFpdybaSl4oZWOhkyBtkA5Xd-WRZFu1]--></g></svg>

<svg xmlns="http://www.w3.org/2000/svg" width="501" height="872" viewBox="0 0 501 872"><rect width="487" height="205.57" x="7" y="660.14" fill="#3D176E" rx="2.5" ry="2.5" style="stroke:#000d19;stroke-width:.5"/><circle cx="131.25" cy="680.034" r="11" fill="#ADD1B2" style="stroke:#181818;stroke-width:1"/><path d="M134.219 685.675q-.578.297-1.219.438-.64.156-1.344.156-2.5 0-3.828-1.64-1.312-1.657-1.312-4.782t1.312-4.781q1.328-1.657 3.828-1.657.703 0 1.344.157.656.156 1.219.453v2.719q-.625-.579-1.219-.844-.594-.281-1.219-.281-1.344 0-2.031 1.078-.687 1.062-.687 3.156t.687 3.172q.688 1.062 2.031 1.062.625 0 1.219-.265.594-.282 1.219-.86z"/><text x="156.75" y="685.92" fill="#D9B8FF" font-family="Helvetica" font-size="17" textLength="220">azure_cosmos_db_location</text><path d="M8 699.929h485" style="stroke:#000d19;stroke-width:.5"/><text x="18" y="721.924" fill="#D9B8FF" font-family="sans-serif" font-size="14" font-weight="bold" textLength="240">backup_storage_redundancies</text><text x="258" y="721.924" fill="#D9B8FF" font-family="sans-serif" font-size="14" textLength="58">: string[]</text><text x="18" y="748.221" fill="#D9B8FF" font-family="sans-serif" font-size="14" font-weight="bold" textLength="183">is_residency_restricted</text><text x="201" y="748.221" fill="#D9B8FF" font-family="sans-serif" font-size="14" textLength="65">: boolean</text><text x="18" y="774.518" fill="#D9B8FF" font-family="sans-serif" font-size="14" font-weight="bold" textLength="361">is_subscription_region_access_allowed_for_az</text><text x="379" y="774.518" fill="#D9B8FF" font-family="sans-serif" font-size="14" textLength="65">: boolean</text><text x="18" y="800.815" fill="#D9B8FF" font-family="sans-serif" font-size="14" font-weight="bold" textLength="400">is_subscription_region_access_allowed_for_regular</text><text x="418" y="800.815" fill="#D9B8FF" font-family="sans-serif" font-size="14" textLength="65">: boolean</text><text x="18" y="827.112" fill="#D9B8FF" font-family="sans-serif" font-size="14" font-weight="bold" textLength="49">status</text><text x="67" y="827.112" fill="#D9B8FF" font-family="sans-serif" font-size="14" textLength="48">: string</text><text x="18" y="853.409" fill="#D9B8FF" font-family="sans-serif" font-size="14" font-weight="bold" textLength="205">supports_availability_zone</text><text x="223" y="853.409" fill="#D9B8FF" font-family="sans-serif" font-size="14" textLength="65">: boolean</text><rect width="214" height="100.383" x="23.5" y="438.76" fill="#3D176E" rx="2.5" ry="2.5" style="stroke:#000d19;stroke-width:.5"/><circle cx="44.8" cy="458.654" r="11" fill="#ADD1B2" style="stroke:#181818;stroke-width:1"/><path d="M47.769 464.295q-.578.297-1.219.438-.64.156-1.344.156-2.5 0-3.828-1.64-1.312-1.657-1.312-4.782t1.312-4.781q1.328-1.656 3.828-1.656.703 0 1.344.156.656.156 1.219.453v2.719q-.625-.579-1.219-.844-.594-.281-1.219-.281-1.344 0-2.031 1.078-.687 1.062-.687 3.156t.687 3.172q.688 1.062 2.031 1.062.625 0 1.219-.265.594-.281 1.219-.86z"/><text x="65.2" y="464.54" fill="#D9B8FF" font-family="Helvetica" font-size="17" textLength="158">microsoft_resource</text><path d="M24.5 478.549h212" style="stroke:#000d19;stroke-width:.5"/><text x="34.5" y="500.544" fill="#D9B8FF" font-family="sans-serif" font-size="14" font-weight="bold" textLength="35">etag</text><text x="69.5" y="500.544" fill="#D9B8FF" font-family="sans-serif" font-size="14" textLength="48">: string</text><text x="34.5" y="526.841" fill="#D9B8FF" font-family="sans-serif" font-size="14" font-weight="bold" textLength="144">provisioning_state</text><text x="178.5" y="526.841" fill="#D9B8FF" font-family="sans-serif" font-size="14" textLength="48">: string</text><rect width="198" height="39.789" x="272.5" y="469.05" fill="#3D176E" rx="2.5" ry="2.5" style="stroke:#000d19;stroke-width:.5"/><circle cx="287.5" cy="488.945" r="11" fill="#ADD1B2" style="stroke:#181818;stroke-width:1"/><path d="M290.469 494.585q-.578.297-1.219.438-.64.156-1.344.156-2.5 0-3.828-1.64-1.312-1.657-1.312-4.782t1.312-4.781q1.328-1.656 3.828-1.656.703 0 1.344.156.656.156 1.219.453v2.719q-.625-.579-1.219-.844-.594-.281-1.219-.281-1.344 0-2.031 1.078-.687 1.062-.687 3.156t.687 3.172q.688 1.062 2.031 1.062.625 0 1.219-.265.594-.281 1.219-.86z"/><text x="306.5" y="494.83" fill="#D9B8FF" font-family="Helvetica" font-size="17" textLength="156">phantom_resource</text><rect width="227" height="310.758" x="137" y="7" fill="#3D176E" rx="2.5" ry="2.5" style="stroke:#000d19;stroke-width:.5"/><circle cx="205.75" cy="26.895" r="11" fill="#ADD1B2" style="stroke:#181818;stroke-width:1"/><path d="M208.719 32.535q-.578.297-1.219.438-.64.156-1.344.156-2.5 0-3.828-1.64-1.312-1.657-1.312-4.782t1.312-4.781q1.328-1.656 3.828-1.656.703 0 1.344.156.656.156 1.219.453v2.719q-.625-.578-1.219-.844-.594-.281-1.219-.281-1.344 0-2.031 1.078-.687 1.062-.687 3.156t.687 3.172q.688 1.062 2.031 1.062.625 0 1.219-.265.594-.281 1.219-.86z"/><text x="231.25" y="32.78" fill="#D9B8FF" font-family="Helvetica" font-size="17" textLength="71">resource</text><path d="M138 46.789h225" style="stroke:#000d19;stroke-width:.5"/><text x="148" y="68.784" fill="#D9B8FF" font-family="sans-serif" font-size="14" font-weight="bold" textLength="29">age</text><text x="177" y="68.784" fill="#D9B8FF" font-family="sans-serif" font-size="14" textLength="66">: duration</text><text x="148" y="95.081" fill="#D9B8FF" font-family="sans-serif" font-size="14" font-weight="bold" textLength="43">atime</text><text x="191" y="95.081" fill="#D9B8FF" font-family="sans-serif" font-size="14" textLength="70">: datetime</text><text x="148" y="121.378" fill="#D9B8FF" font-family="sans-serif" font-size="14" font-weight="bold" textLength="43">ctime</text><text x="191" y="121.378" fill="#D9B8FF" font-family="sans-serif" font-size="14" textLength="70">: datetime</text><text x="148" y="147.675" fill="#D9B8FF" font-family="sans-serif" font-size="14" font-weight="bold" textLength="14">id</text><text x="162" y="147.675" fill="#D9B8FF" font-family="sans-serif" font-size="14" textLength="48">: string</text><text x="148" y="173.972" fill="#D9B8FF" font-family="sans-serif" font-size="14" font-weight="bold" textLength="33">kind</text><text x="181" y="173.972" fill="#D9B8FF" font-family="sans-serif" font-size="14" textLength="48">: string</text><text x="148" y="200.269" fill="#D9B8FF" font-family="sans-serif" font-size="14" font-weight="bold" textLength="90">last_access</text><text x="238" y="200.269" fill="#D9B8FF" font-family="sans-serif" font-size="14" textLength="66">: duration</text><text x="148" y="226.565" fill="#D9B8FF" font-family="sans-serif" font-size="14" font-weight="bold" textLength="90">last_update</text><text x="238" y="226.565" fill="#D9B8FF" font-family="sans-serif" font-size="14" textLength="66">: duration</text><text x="148" y="252.862" fill="#D9B8FF" font-family="sans-serif" font-size="14" font-weight="bold" textLength="48">mtime</text><text x="196" y="252.862" fill="#D9B8FF" font-family="sans-serif" font-size="14" textLength="70">: datetime</text><text x="148" y="279.159" fill="#D9B8FF" font-family="sans-serif" font-size="14" font-weight="bold" textLength="43">name</text><text x="191" y="279.159" fill="#D9B8FF" font-family="sans-serif" font-size="14" textLength="48">: string</text><text x="148" y="305.456" fill="#D9B8FF" font-family="sans-serif" font-size="14" font-weight="bold" textLength="34">tags</text><text x="182" y="305.456" fill="#D9B8FF" font-family="sans-serif" font-size="14" textLength="171">: dictionary[string, string]</text><g fill="none"><path d="M159.639 555.987c14.81 33.55 27.631 62.623 45.781 103.763" style="stroke:#ffaf37;stroke-width:2"/><path d="m152.37 539.52 1.78 18.89 10.978-4.846z" style="stroke:#ffaf37;stroke-width:2"/></g><path fill="none" d="M355.675 525.517c-13.85 31.14-34.905 78.463-59.695 134.173m67.01-150.62-12.797 14.008 10.964 4.877zM187.067 334.943c-16.12 43.59-26.257 71.037-38.257 103.477m44.5-120.36-11.87 14.801 11.254 4.163z" style="stroke:#ffaf37;stroke-width:2"/><g fill="none"><path d="M314.448 334.926c22.28 59.76 38.782 104.024 49.972 134.034" style="stroke:#ffaf37;stroke-width:2"/><path d="m308.16 318.06.666 18.962 11.244-4.192z" style="stroke:#ffaf37;stroke-width:2"/></g></svg>
